img/icons/poll.svg

<svg width="58" height="58" viewBox="0 0 58 58" fill="none" xmlns="http://www.w3.org/2000/svg">
<path d="M45.9167 7.25H12.0833C9.425 7.25 7.25 9.425 7.25 12.0833V45.9167C7.25 48.575 9.425 50.75 12.0833 50.75H45.9167C48.575 50.75 50.75 48.575 50.75 45.9167V12.0833C50.75 9.425 48.575 7.25 45.9167 7.25ZM21.75 41.0833H16.9167V24.1667H21.75V41.0833ZM31.4167 41.0833H26.5833V16.9167H31.4167V41.0833ZM41.0833 41.0833H36.25V31.4167H41.0833V41.0833Z" fill="white"/>
</svg>

<svg width="58" height="58" fill="none" xmlns="http://www.w3.org/2000/svg"><path d="M45.917 7.25H12.083a4.848 4.848 0 00-4.833 4.833v33.834a4.848 4.848 0 004.833 4.833h33.834a4.848 4.848 0 004.833-4.833V12.083a4.848 4.848 0 00-4.833-4.833zM21.75 41.083h-4.833V24.167h4.833v16.916zm9.667 0h-4.834V16.917h4.834v24.166zm9.666 0H36.25v-9.666h4.833v9.666z" fill="#fff"/></svg>
